X: 1
T:Fisher's Hornpipe
S:Page 1984
H:James Fisher, in 1770's
N: abc version by Robert Bley-Vroman, University of Hawaii, 30 December 1996
N: vroman@hawaii.edu 
M:C|
L:1/8
K:F
c2 | fcAc BdcB | AcAc BdcB | AFAF BGBG | AFAF G2c2 |
     fcAc BdcB | AcAc BdcB | ABcd efge | f2 f2 f2 :|
ef | gece gebg | afcf afc'a | gece geba | gfed c2=Bc |
     dBFB dBfd | cAFA cAfc | dfed cBAG | F2 f2 f2 :|
